img/icon/copy.svg

<svg width="14" height="14" viewBox="0 0 14 14" fill="none" xmlns="http://www.w3.org/2000/svg">
<path d="M13 2.33333V1.66667C13 1.29867 12.7013 1 12.3333 1H11.6667M13 9V9.66667C13 10.0347 12.7013 10.3333 12.3333 10.3333H11.6667M3.66667 2.33333V1.66667C3.66667 1.29867 3.96533 1 4.33333 1H5M7.66667 1H9M13 6.33333V5M9 13H1.66667C1.29867 13 1 12.7013 1 12.3333V5C1 4.632 1.29867 4.33333 1.66667 4.33333H9C9.368 4.33333 9.66667 4.632 9.66667 5V12.3333C9.66667 12.7013 9.368 13 9 13Z" stroke="url(#paint0_linear)" stroke-width="1.5" stroke-linecap="round" stroke-linejoin="round"/>
<defs>
<linearGradient id="paint0_linear" x1="1" y1="1" x2="1" y2="13" gradientUnits="userSpaceOnUse">
<stop stop-color="#5986FB"/>
<stop offset="1" stop-color="#2D4EF5"/>
</linearGradient>
</defs>
</svg>

<svg width="14" height="14" fill="none" xmlns="http://www.w3.org/2000/svg"><path d="M13 2.333v-.666A.667.667 0 0 0 12.333 1h-.666M13 9v.667a.667.667 0 0 1-.667.666h-.666m-8-8v-.666c0-.368.298-.667.666-.667H5m2.667 0H9m4 5.333V5m-4 8H1.667A.667.667 0 0 1 1 12.333V5c0-.368.299-.667.667-.667H9c.368 0 .667.299.667.667v7.333A.667.667 0 0 1 9 13z" stroke="url(#paint0_linear)" stroke-width="1.5" stroke-linecap="round" stroke-linejoin="round"/><defs><linearGradient id="paint0_linear" x1="1" y1="1" x2="1" y2="13" gradientUnits="userSpaceOnUse"><stop stop-color="#5986FB"/><stop offset="1" stop-color="#2D4EF5"/></linearGradient></defs></svg>
